src/assets/icons/settings/reset.svg

<?xml version="1.0" encoding="UTF-8"?>
<svg width="24px" height="24px" viewBox="0 0 24 24" version="1.1" xmlns="http://www.w3.org/2000/svg" xmlns:xlink="http://www.w3.org/1999/xlink">
    <title>帮助中心图标备份 37</title>
    <g id="扩展程序" stroke="none" stroke-width="1" fill="none" fill-rule="evenodd">
        <g id="设置" transform="translate(-40.000000, -866.000000)" fill="#F04438">
            <g id="编组-6备份-8" transform="translate(20.000000, 514.000000)">
                <g id="编组-4备份-29" transform="translate(20.000000, 336.000000)">
                    <g id="编组" transform="translate(0.000000, 16.000000)">
                        <path d="M20,1 C20.5522847,1 21,1.44771525 21,2 L21,6 L21,6 C21,6.51283584 20.6139598,6.93550716 20.1166211,6.99327227 L20,7 L20,7 L16,7 C15.4477153,7 15,6.55228475 15,6 C15,5.44771525 15.4477153,5 16,5 L17.6573884,5.00004371 C16.1116541,3.74921758 14.1433216,3 12,3 C7.02943725,3 3,7.02943725 3,12 C3,16.9705627 7.02943725,21 12,21 C16.9705627,21 21,16.9705627 21,12 C21,10.9197713 20.8096887,9.88399223 20.4607654,8.92436218 L22.3407197,8.2402937 C22.7673188,9.41334128 23,10.6794978 23,12 C23,18.0751322 18.0751322,23 12,23 C5.92486775,23 1,18.0751322 1,12 C1,5.92486775 5.92486775,1 12,1 C14.6597248,1 17.0989744,1.94396633 19.0010007,3.51515075 L19,2 C19,1.44771525 19.4477153,1 20,1 Z M11,7 C11.5522847,7 12,7.44771525 12,8 L12,12.585 L14.5355339,15.1213203 C14.9260582,15.5118446 14.9260582,16.1450096 14.5355339,16.5355339 C14.1450096,16.9260582 13.5118446,16.9260582 13.1213203,16.5355339 L10.2928932,13.7071068 C10.260879,13.6746234 10.2360153,13.6463584 10.212786,13.6167501 L10.2928932,13.7071068 C10.2574992,13.6717127 10.225313,13.6343256 10.1963346,13.5953066 C10.1784901,13.5711307 10.1617187,13.546275 10.1460674,13.5206602 C10.1386069,13.5086131 10.1314988,13.4963944 10.1246712,13.4840621 C10.1137939,13.4642939 10.1033766,13.4438914 10.0936538,13.4230991 C10.085679,13.4060985 10.0781964,13.3887956 10.0712255,13.371336 C10.0633157,13.3515792 10.0561225,13.3317977 10.0495467,13.3117364 C10.0447287,13.2968513 10.0400977,13.2814633 10.0358451,13.265993 C10.0298336,13.2444365 10.0246398,13.2227461 10.0201652,13.2007941 C10.0162972,13.1813892 10.0129304,13.1619586 10.0101397,13.1424614 C10.0076228,13.1253586 10.0055658,13.1076477 10.0039775,13.0898018 C10.001895,13.0659949 10.0006349,13.042681 10.0001861,13.0193545 C10.0000613,13.0129086 10,13.0064615 10,13 L10,8 C10,7.44771525 10.4477153,7 11,7 Z" id="形状结合"></path>
                    </g>
                </g>
            </g>
        </g>
    </g>
</svg>

<svg width="24" height="24" xmlns="http://www.w3.org/2000/svg"><path d="M20 1a1 1 0 0 1 1 1v4a1 1 0 0 1-.883.993L20 7h-4a1 1 0 0 1 0-2h1.657a9 9 0 1 0 2.803 3.924l1.88-.684c.427 1.173.66 2.44.66 3.76 0 6.075-4.925 11-11 11S1 18.075 1 12 5.925 1 12 1c2.66 0 5.099.944 7.001 2.515L19 2a1 1 0 0 1 1-1zm-9 6a1 1 0 0 1 1 1v4.585l2.536 2.536a1 1 0 0 1-1.415 1.415l-2.828-2.829a1.04 1.04 0 0 1-.08-.09l.08.09A1.008 1.008 0 0 1 10 13.02 1 1 0 0 1 10 13V8a1 1 0 0 1 1-1z" fill="#f04438" fill-rule="evenodd"/></svg>
